svg/24/skip-back.svg

<svg width="24" height="24" viewBox="0 0 24 24" fill="currentColor" xmlns="http://www.w3.org/2000/svg"><path d="M2 3.75C2 3.33579 2.33579 3 2.75 3C3.16422 3 3.5 3.33579 3.5 3.75V20.25C3.5 20.6642 3.16422 21 2.75 21C2.33579 21 2 20.6642 2 20.25V3.75Z"/><path fill-rule="evenodd" clip-rule="evenodd" d="M7 10.268C5.66667 11.0378 5.66667 12.9623 7 13.7321L19 20.6603C20.3333 21.4301 22 20.4678 22 18.9282V5.0718C22 3.5322 20.3333 2.56995 19 3.33975L7 10.268ZM7.75 12.433L19.75 19.3612C20.0833 19.5537 20.5 19.3131 20.5 18.9282L20.5 5.0718C20.5 4.6869 20.0833 4.44634 19.75 4.63879L7.75 11.567C7.41667 11.7594 7.41667 12.2406 7.75 12.433Z"/></svg>

<svg xmlns="http://www.w3.org/2000/svg" width="24" height="24" fill="currentColor" viewBox="0 0 24 24">
  <path d="M2 3.75a.75.75 0 0 1 1.5 0v16.5a.75.75 0 0 1-1.5 0V3.75Z"/>
  <path fill-rule="evenodd" d="M7 10.268c-1.333.77-1.333 2.694 0 3.464l12 6.928c1.333.77 3-.192 3-1.732V5.072c0-1.54-1.667-2.502-3-1.732L7 10.268Zm.75 2.165 12 6.928a.5.5 0 0 0 .75-.433V5.072a.5.5 0 0 0-.75-.433l-12 6.928a.5.5 0 0 0 0 .866Z" clip-rule="evenodd"/>
</svg>
